color/svg/E150.svg

<svg id="emoji" viewBox="0 0 72 72" xmlns="http://www.w3.org/2000/svg">
  <g id="color">
    <rect x="12" y="12" rx="1" width="48" height="48" fill="#9B9B9A"/>
    <path fill="#d0cfce" d="M24 26H47L45 34H26L24 26Z"/>
    <circle cx="35" cy="19" r="4" fill="#fff"/>
    <line x1="35" x2="35" y1="19" y2="18" stroke="#D22F27" stroke-linecap="round" stroke-width="2"/>
    <path fill="#A57939" d="M18.1518 15.3582C18.5434 14.7311 19.4566 14.7311 19.8482 15.3582L20.2182 15.9506C20.3944 16.2328 20.6993 16.4088 21.0317 16.4204L21.7298 16.4445C22.4687 16.4701 22.9253 17.261 22.578 17.9136L22.2499 18.5303C22.0937 18.8239 22.0937 19.1761 22.2499 19.4697L22.578 20.0864C22.9253 20.739 22.4687 21.5299 21.7298 21.5555L21.0317 21.5796C20.6993 21.5912 20.3944 21.7672 20.2182 22.0494L19.8482 22.6418C19.4566 23.2689 18.5434 23.2689 18.1518 22.6418L17.7818 22.0494C17.6056 21.7672 17.3007 21.5912 16.9683 21.5796L16.2702 21.5555C15.5313 21.5299 15.0747 20.739 15.422 20.0864L15.7501 19.4697C15.9063 19.1761 15.9063 18.8239 15.7501 18.5303L15.422 17.9136C15.0747 17.261 15.5313 16.4701 16.2702 16.4445L16.9683 16.4204C17.3007 16.4088 17.6056 16.2328 17.7818 15.9506L18.1518 15.3582Z"/>
    <path fill="#A57939" d="M39 28C39 30.2091 46.7909 32 49 32C51.2091 32 53 30.2091 53 28C53 25.7909 51.2091 24 49 24C46.7909 24 39 25.7909 39 28Z"/>
    <circle cx="53.5" cy="18.5" r="2.5" fill="#D22F27"/>
    <path fill="#fff" d="M25 52L45 52L43 55H27L25 52Z"/>
    <g>
      <path fill="#fff" fill-rule="evenodd" d="M35 53C38.3137 53 41 48.5228 41 43H29C29 48.5228 31.6863 53 35 53Z" clip-rule="evenodd"/>
      <path fill="#fff" d="M41 43H42C42 42.4477 41.5523 42 41 42V43ZM29 43V42C28.4477 42 28 42.4477 28 43H29ZM40 43C40 45.6113 39.3629 47.9271 38.3851 49.5566C37.3955 51.206 36.1676 52 35 52V54C37.1461 54 38.9182 52.5554 40.1001 50.5856C41.294 48.5958 42 45.9115 42 43H40ZM29 44H41V42H29V44ZM35 52C33.8324 52 32.6045 51.206 31.6149 49.5566C30.6371 47.9271 30 45.6113 30 43H28C28 45.9115 28.706 48.5958 29.8999 50.5856C31.0818 52.5554 32.8539 54 35 54V52Z"/>
    </g>
    <circle cx="53.5" cy="18.5" r="2.5" fill="none" stroke="#D0CFCE" stroke-width="2"/>
  </g>
  <g id="line">
    <rect x="12" y="12" rx="1" width="48" height="48" fill="none" stroke="#000" stroke-linejoin="round" stroke-width="2"/>
    <path fill="none" stroke="#000" stroke-width="2" d="M12 26H24"/>
    <path fill="none" stroke="#000" stroke-linecap="round" stroke-width="2" d="M56 26L60 26"/>
    <line x1="12" x2="60" y1="55" y2="55" stroke="#000" stroke-width="2"/>
    <path fill="none" stroke="#000" stroke-linecap="round" stroke-linejoin="round" stroke-width="2" d="M40.5 26H24L26 34H44"/>
    <circle cx="35" cy="19" r="4" fill="none" stroke="#000" stroke-width="2"/>
    <path fill="none" stroke="#000" stroke-linecap="round" stroke-linejoin="round" stroke-width="2" d="M30.1996 49C29.4463 47.3287 29 45.2512 29 43H41C41 45.2512 40.5537 47.3287 39.8004 49"/>
    <path fill="none" stroke="#000" stroke-width="2" d="M18.1518 15.3582C18.5434 14.7311 19.4566 14.7311 19.8482 15.3582L20.2182 15.9506C20.3944 16.2328 20.6993 16.4088 21.0317 16.4204L21.7298 16.4445C22.4687 16.4701 22.9253 17.261 22.578 17.9136L22.2499 18.5303C22.0937 18.8239 22.0937 19.1761 22.2499 19.4697L22.578 20.0864C22.9253 20.739 22.4687 21.5299 21.7298 21.5555L21.0317 21.5796C20.6993 21.5912 20.3944 21.7672 20.2182 22.0494L19.8482 22.6418C19.4566 23.2689 18.5434 23.2689 18.1518 22.6418L17.7818 22.0494C17.6056 21.7672 17.3007 21.5912 16.9683 21.5796L16.2702 21.5555C15.5313 21.5299 15.0747 20.739 15.422 20.0864L15.7501 19.4697C15.9063 19.1761 15.9063 18.8239 15.7501 18.5303L15.422 17.9136C15.0747 17.261 15.5313 16.4701 16.2702 16.4445L16.9683 16.4204C17.3007 16.4088 17.6056 16.2328 17.7818 15.9506L18.1518 15.3582Z"/>
    <path fill="none" stroke="#000" stroke-width="2" d="M39 28C39 30.2091 46.7909 32 49 32C51.2091 32 53 30.2091 53 28C53 25.7909 51.2091 24 49 24C46.7909 24 39 25.7909 39 28Z"/>
    <path fill="none" stroke="#000" stroke-linecap="round" stroke-width="2" d="M53.5 21C52.1193 21 51 19.8807 51 18.5C51 17.1193 52.1193 16 53.5 16"/>
    <path fill="none" stroke="#000" stroke-linejoin="round" stroke-width="2" d="M25 52L45 52L43 55H27L25 52Z"/>
  </g>
</svg>

<svg viewBox="0 0 72 72" xmlns="http://www.w3.org/2000/svg">
  <path fill="#B3B3B3" d="M68 4v64H4V4h64zm4-4H0v72h72V0z"/>
  <path fill="none" stroke="#00A5FF" stroke-miterlimit="10" stroke-width="0.1" d="M12.923 10.958h46.154A1.923 1.923 0 0161 12.881v46.154a1.923 1.923 0 01-1.923 1.923H12.923A1.923 1.923 0 0111 59.035V12.881a1.923 1.923 0 011.923-1.923v0z"/>
  <path fill="none" stroke="#00A5FF" stroke-miterlimit="10" stroke-width="0.1" d="M53.746 4H18.254A2.254 2.254 0 0016 6.254v59.492A2.254 2.254 0 0018.254 68h35.492A2.254 2.254 0 0056 65.746V6.254A2.254 2.254 0 0053.746 4z"/>
  <path fill="none" stroke="#00A5FF" stroke-miterlimit="10" stroke-width="0.1" d="M68 53.746V18.254A2.254 2.254 0 0065.746 16H6.254A2.254 2.254 0 004 18.254v35.492A2.254 2.254 0 006.254 56h59.492A2.254 2.254 0 0068 53.746z"/>
  <path fill="none" stroke="#00A5FF" stroke-miterlimit="10" stroke-width="0.1" d="M36 65c16.016 0 29-12.984 29-29S52.016 7 36 7 7 19.984 7 36s12.984 29 29 29z"/>
  <g fill="none" stroke="#fff" stroke-linecap="round" stroke-linejoin="round" stroke-miterlimit="10" stroke-width="6">
    <rect x="12" y="12" rx="1" width="48" height="48"/>
    <path d="M12 26h12m32 0h4M12 55h48M40.5 26H24l2 8h18"/>
    <circle cx="35" cy="19" r="4"/>
    <path d="M30.2 49c-.754-1.671-1.2-3.749-1.2-6h12c0 2.251-.446 4.329-1.2 6M18.152 15.358a1 1 0 011.696 0l.37.593a1 1 0 00.814.47l.698.024a1 1 0 01.848 1.469l-.328.616a1 1 0 000 .94l.328.616a1 1 0 01-.848 1.47l-.698.024a1 1 0 00-.814.47l-.37.592a1 1 0 01-1.696 0l-.37-.593a1 1 0 00-.814-.47l-.698-.024a1 1 0 01-.848-1.469l.328-.616a1 1 0 000-.94l-.328-.616a1 1 0 01.848-1.47l.698-.024a1 1 0 00.814-.47l.37-.592zM39 28c0 2.21 7.79 4 10 4a4 4 0 000-8c-2.21 0-10 1.79-10 4zm14.5-7a2.5 2.5 0 010-5M25 52h20l-2 3H27l-2-3z"/>
  </g>
  <rect x="12" y="12" rx="1" width="48" height="48" fill="#9B9B9A"/>
  <path fill="#d0cfce" d="M24 26h23l-2 8H26l-2-8z"/>
  <circle cx="35" cy="19" r="4" fill="#fff"/>
  <path stroke="#D22F27" stroke-linecap="round" stroke-width="2" d="M35 19v-1"/>
  <path fill="#A57939" d="M18.152 15.358a1 1 0 011.696 0l.37.593a1 1 0 00.814.47l.698.024a1 1 0 01.848 1.469l-.328.616a1 1 0 000 .94l.328.616a1 1 0 01-.848 1.47l-.698.024a1 1 0 00-.814.47l-.37.592a1 1 0 01-1.696 0l-.37-.593a1 1 0 00-.814-.47l-.698-.024a1 1 0 01-.848-1.469l.328-.616a1 1 0 000-.94l-.328-.616a1 1 0 01.848-1.47l.698-.024a1 1 0 00.814-.47l.37-.592zM39 28c0 2.21 7.79 4 10 4a4 4 0 000-8c-2.21 0-10 1.79-10 4z"/>
  <circle cx="53.5" cy="18.5" r="2.5" fill="#D22F27"/>
  <path fill="#fff" d="M25 52h20l-2 3H27l-2-3z"/>
  <g fill="#fff">
    <path fill-rule="evenodd" d="M35 53c3.314 0 6-4.477 6-10H29c0 5.523 2.686 10 6 10z" clip-rule="evenodd"/>
    <path d="M41 43h1a1 1 0 00-1-1v1zm-12 0v-1a1 1 0 00-1 1h1zm11 0c0 2.611-.637 4.927-1.615 6.557C37.395 51.206 36.168 52 35 52v2c2.146 0 3.918-1.445 5.1-3.414C41.294 48.596 42 45.91 42 43h-2zm-11 1h12v-2H29v2zm6 8c-1.168 0-2.395-.794-3.385-2.443C30.637 47.927 30 45.61 30 43h-2c0 2.911.706 5.596 1.9 7.586C31.082 52.556 32.854 54 35 54v-2z"/>
  </g>
  <circle cx="53.5" cy="18.5" r="2.5" fill="none" stroke="#D0CFCE" stroke-width="2"/>
  <g stroke="#000" stroke-width="2">
    <rect x="12" y="12" rx="1" width="48" height="48" fill="none" stroke-linejoin="round"/>
    <path fill="none" d="M12 26h12"/>
    <path fill="none" stroke-linecap="round" d="M56 26h4"/>
    <path d="M12 55h48"/>
    <path fill="none" stroke-linecap="round" stroke-linejoin="round" d="M40.5 26H24l2 8h18"/>
    <circle cx="35" cy="19" r="4" fill="none"/>
    <path fill="none" stroke-linecap="round" stroke-linejoin="round" d="M30.2 49c-.754-1.671-1.2-3.749-1.2-6h12c0 2.251-.446 4.329-1.2 6"/>
    <path fill="none" d="M18.152 15.358a1 1 0 011.696 0l.37.593a1 1 0 00.814.47l.698.024a1 1 0 01.848 1.469l-.328.616a1 1 0 000 .94l.328.616a1 1 0 01-.848 1.47l-.698.024a1 1 0 00-.814.47l-.37.592a1 1 0 01-1.696 0l-.37-.593a1 1 0 00-.814-.47l-.698-.024a1 1 0 01-.848-1.469l.328-.616a1 1 0 000-.94l-.328-.616a1 1 0 01.848-1.47l.698-.024a1 1 0 00.814-.47l.37-.592zM39 28c0 2.21 7.79 4 10 4a4 4 0 000-8c-2.21 0-10 1.79-10 4z"/>
    <path fill="none" stroke-linecap="round" d="M53.5 21a2.5 2.5 0 010-5"/>
    <path fill="none" stroke-linejoin="round" d="M25 52h20l-2 3H27l-2-3z"/>
  </g>
</svg>
